X: 18828
T: Imeland
R: reel
M: 4/4
K: Amixolydian
|:"A"E3/4F//E/D/ E3/2F/ E2 E2|A3/2B/ cB B3/2A/ A3/2B/|c2 c3/2B/ "G"=G2 G2-|=G3/2B/ e3/2c/ "A"A2 A2|
E3/4F//E/D/ E3/2F/ E2 E2|A3/2B/ cB B3/2A/ A3/2B/|c2 c3/2B/ "G"=G3/2B/ e3/2c/|"A"A2 A3/2B/ A3 z:|
|:"A"a3/4b//a/g/ a3/2b/ "G"=g2 g3/2f/|"A"e3/2f/ ec A2 A3/2B/|c2 c3/2B/ "G"=G2 G2-|=G3/2B/ e3/2c/ "A"A2 A2|
a3/4b//a/g/ a3/2b/ "Em7"=g2 g3/2f/|e3/2f/ ec "A"A2 A3/2B/|c2 c3/2B/ "G"=G3/2B/ e3/2c/|"A"A2 A3/2B/ A3 z:|

